X: 9737
T: Deirdre's Lament
R: waltz
M: 3/4
K: Gmajor
G2 D2 E>A|G2 G2 G2|c2 B2 A>G|B2 A2 B>A|
c2 B2 B>A|A2 G>E G2|G2 G2 G>B|A2 A2 G>E|

